src/pos-icons/hexagram.svg

<svg height="24" viewBox="0 0 24 24" width="24" xmlns="http://www.w3.org/2000/svg"><path d="m14.5 7.66 6.14-.69-3.64 5.03 3.68 4.97-6.18-.65-2.47 5.68-2.53-5.66-6.14.69 3.64-5.03-3.68-4.97 6.18.65 2.47-5.68z"/></svg>

<?xml version="1.0" encoding="UTF-8"?><!DOCTYPE svg PUBLIC "-//W3C//DTD SVG 1.1//EN" "http://www.w3.org/Graphics/SVG/1.1/DTD/svg11.dtd"><svg xmlns="http://www.w3.org/2000/svg" xmlns:xlink="http://www.w3.org/1999/xlink" version="1.1" id="mdi-hexagram" width="24" height="24" viewBox="0 0 24 24"><path d="M14.5,7.66L20.64,6.97L17,12L20.68,16.97L14.5,16.32L12.03,22L9.5,16.34L3.36,17.03L7,12L3.32,7.03L9.5,7.68L11.97,2L14.5,7.66Z" /></svg>
